X:1
T:Twinkle Twinkle Little Star
C:Traditional
M:4/4
L:1/4
Q:120
K:C clef=treble
%%staves {1 2}
V:1 clef=treble
V:2 clef=bass
[V:1] C C G G | A A G2 | F F E E | D D C2 |
[V:2] C, E, G, E, | F, E, G,2 | D, F, G, E, | F, G, C,2 |
[V:1] G G F F | E E D2 | G G F F | E E D2 |
[V:2] E, G, D, F, | G, E, G,2 | E, G, D, F, | G, E, G,2 |
[V:1] C C G G | A A G2 | F F E E | D D C2 |]
[V:2] C, E, G, E, | F, E, G,2 | D, F, G, E, | F, G, C,2 |]
